mouse-move-up.svg

<svg fill="currentColor" viewBox="0 0 24 24"><path d="M7 9H2c0-2.96 2.17-5.43 5-5.91zm11 8h2v-6h3l-4-4-4 4h3zM9 3.09V9h5c0-2.96-2.17-5.43-5-5.91M2 15c0 3.3 2.7 6 6 6s6-2.7 6-6v-4H2z"/></svg>

<svg  viewBox="0 0 24 24" fill="currentColor"><path  d="M7 9H2C2 6.04 4.17 3.57 7 3.09V9M18 17H20V11H23L19 7L15 11H18V17M9 3.09V9H14C14 6.04 11.83 3.57 9 3.09M2 15C2 18.3 4.7 21 8 21S14 18.3 14 15V11H2V15Z"/></svg>
